packages/foundations/assets/icons/functional/images/date & time/calendar_16.svg

<svg width="16" height="16" viewBox="0 0 16 16" fill="none" xmlns="http://www.w3.org/2000/svg">
<g clip-path="url(#clip0_185_663)">
<path fill-rule="evenodd" clip-rule="evenodd" d="M2.40002 12.8022V4.79333C2.40002 4.35531 2.75979 3.99555 3.1978 3.99555H4.79336V3.19777C4.79336 2.75976 5.15312 2.39999 5.59106 2.39999C6.04471 2.39999 6.40447 2.75976 6.40447 3.19777V3.99555H9.59558V3.19777C9.59558 2.75976 9.95534 2.39999 10.409 2.39999C10.8469 2.39999 11.2067 2.75976 11.2067 3.19777V3.99555H12.8022C13.2403 3.99555 13.6 4.35531 13.6 4.79333V12.8022C13.6 13.2402 13.2403 13.6 12.8022 13.6H3.1978C2.75979 13.6 2.40002 13.2402 2.40002 12.8022ZM3.99558 12.0044H12.0045V8.79777H3.99558V12.0044ZM3.99558 7.20222H12.0045V5.59103L3.99558 5.60674V7.20222Z" fill="#1A1C1F"/>
</g>
<defs>
<clipPath id="clip0_185_663">
<rect width="16" height="16" fill="white"/>
</clipPath>
</defs>
</svg>

<svg xmlns="http://www.w3.org/2000/svg" width="16" height="16" fill="none"><g clip-path="url(#a)"><path fill="#1A1C1F" fill-rule="evenodd" d="M2.4 12.802V4.793c0-.438.36-.797.798-.797h1.595v-.798c0-.438.36-.798.798-.798.454 0 .813.36.813.798v.798h3.192v-.798c0-.438.36-.798.813-.798.438 0 .798.36.798.798v.798h1.595c.438 0 .798.36.798.797v8.01c0 .437-.36.797-.798.797H3.198a.8.8 0 0 1-.798-.798m1.596-.798h8.009V8.798h-8.01zm0-4.802h8.009V5.591l-8.01.016z" clip-rule="evenodd"/></g><defs><clipPath id="a"><path fill="#fff" d="M0 0h16v16H0z"/></clipPath></defs></svg>
